X: 24574
T: Luseblus
R: reel
M: 4/4
K: Ddorian
|:c2d2A4|c2d2^f4|c2d2A2c2|d4d4|
c2d2A4|c2d2^f4|gag2f2d2|c4d4:|

